symbols/web/rule_folder/materialsymbolsrounded/rule_folder_wght600grad200_48px.svg

<svg xmlns="http://www.w3.org/2000/svg" height="48" width="48"><path d="M15.5 30.55q.4 0 .775-.15T17 30l6.75-6.75q.45-.55.4-1.175-.05-.625-.45-1.125-.45-.45-1.125-.45t-1.175.45l-5.95 5.95-1.75-1.75q-.4-.4-1.075-.425-.675-.025-1.175.425-.45.5-.45 1.15 0 .65.45 1.1l2.6 2.6q.25.25.65.4.4.15.8.15Zm12.35-.25q.45.5 1.1.5.65 0 1.15-.5l2.05-2.05 2.1 2.05q.45.5 1.1.5.65 0 1.15-.5.45-.5.45-1.1 0-.6-.45-1.15L34.4 26l2.1-2.1q.45-.5.45-1.1 0-.6-.45-1.15-.5-.45-1.15-.45-.65 0-1.1.45l-2.1 2.1-2.05-2.1q-.5-.45-1.15-.45-.65 0-1.1.45-.5.55-.5 1.15 0 .6.5 1.1L29.9 26l-2.05 2.05q-.5.55-.5 1.15 0 .6.5 1.1ZM7.25 41q-1.65 0-2.9-1.25t-1.25-2.9V10.8q0-1.7 1.25-2.95Q5.6 6.6 7.25 6.6h11.6q.85 0 1.6.35.75.35 1.35.9l2.25 2.25h16.8q1.65 0 2.9 1.25T45 14.3v22.55q0 1.65-1.25 2.9T40.85 41Zm0-30.2v26.05h33.6V14.3h-18.5l-3.5-3.5H7.25Zm0 0v26.05Z"/></svg>

<svg xmlns="http://www.w3.org/2000/svg" height="48" width="48"><path d="M15.5 30.55Q15.9 30.55 16.275 30.4Q16.65 30.25 17 30L23.75 23.25Q24.2 22.7 24.15 22.075Q24.1 21.45 23.7 20.95Q23.25 20.5 22.575 20.5Q21.9 20.5 21.4 20.95L15.45 26.9L13.7 25.15Q13.3 24.75 12.625 24.725Q11.95 24.7 11.45 25.15Q11 25.65 11 26.3Q11 26.95 11.45 27.4L14.05 30Q14.3 30.25 14.7 30.4Q15.1 30.55 15.5 30.55ZM27.85 30.3Q28.3 30.8 28.95 30.8Q29.6 30.8 30.1 30.3L32.15 28.25L34.25 30.3Q34.7 30.8 35.35 30.8Q36 30.8 36.5 30.3Q36.95 29.8 36.95 29.2Q36.95 28.6 36.5 28.05L34.4 26L36.5 23.9Q36.95 23.4 36.95 22.8Q36.95 22.2 36.5 21.65Q36 21.2 35.35 21.2Q34.7 21.2 34.25 21.65L32.15 23.75L30.1 21.65Q29.6 21.2 28.95 21.2Q28.3 21.2 27.85 21.65Q27.35 22.2 27.35 22.8Q27.35 23.4 27.85 23.9L29.9 26L27.85 28.05Q27.35 28.6 27.35 29.2Q27.35 29.8 27.85 30.3ZM7.25 41Q5.6 41 4.35 39.75Q3.1 38.5 3.1 36.85V10.8Q3.1 9.1 4.35 7.85Q5.6 6.6 7.25 6.6H18.85Q19.7 6.6 20.45 6.95Q21.2 7.3 21.8 7.85L24.05 10.1H40.85Q42.5 10.1 43.75 11.35Q45 12.6 45 14.3V36.85Q45 38.5 43.75 39.75Q42.5 41 40.85 41ZM7.25 10.8V36.85Q7.25 36.85 7.25 36.85Q7.25 36.85 7.25 36.85H40.85Q40.85 36.85 40.85 36.85Q40.85 36.85 40.85 36.85V14.3Q40.85 14.3 40.85 14.3Q40.85 14.3 40.85 14.3H22.35L18.85 10.8H7.25Q7.25 10.8 7.25 10.8Q7.25 10.8 7.25 10.8ZM7.25 10.8Q7.25 10.8 7.25 10.8Q7.25 10.8 7.25 10.8V14.3Q7.25 14.3 7.25 14.3Q7.25 14.3 7.25 14.3V36.85Q7.25 36.85 7.25 36.85Q7.25 36.85 7.25 36.85Q7.25 36.85 7.25 36.85Q7.25 36.85 7.25 36.85Z"/></svg>
